file/fidelity-investments.svg

<svg clip-rule="evenodd" fill-rule="evenodd" stroke-linejoin="round" stroke-miterlimit="1.41421" viewBox="0 0 560 400" xmlns="http://www.w3.org/2000/svg"><path d="m91.5 181.8h4.7l-3 9.9h-4.7zm46.5 6.2-.9-6.2h-5.2l2 9.9h5.8l8-9.9h-4.8zm-80.8-78.4c-8.1-2.5-18.2-2.1-25.9 1-9.7 3.6-18.7 12.3-22.5 21.9-4 9.4-4 21.1-.1 30.4 3.3 8.6 10.6 16.3 18.9 20.5 1 .5 2.1 1 3.2 1.4l8.6-26.7h19.2l-4.2-2.7h-14.4l5.6-18.1-9.5 15.3 2.9 2h-4.1l-3.6 5.8-15.4 8.1-.3.1c-.1 0 0-.1 0-.1l19.3-16.4-24.6 2.9v-.2l23.8-7-23.9-7c-.1 0-.1-.1 0-.2l24.6 2.6-19.3-15.8.1-.1 21.7 11.9-11.5-21.9s.1-.1.1 0l15.2 19.7-1.8-25.6c0-.1.1 0 .2 0l6.4 24.6 7.3-23.9h.2l-3.1 24.6 16-18.7c.1 0 .1 0 .1.1l-12.2 21.6 22.1-11.2c0-.1.2 0 .2 0l-19.7 14.9 25.2-1.6v.1l-24.5 6.1 23.6 8.3.2.1s0 .1-.1.1l-25.1-3.8 19.4 16.7c0 .1 0 .2-.1.2l-14.8-8.2 10.6 17.6v.1c6.2-4.9 10.7-11.8 12.9-19 3.5-10.8 1.9-22.9-3.8-32.4-5.1-8.8-13.9-15.4-23.1-18.1zm96.4 82.1h10.8l.6-2h-6.3l.6-2h5.8l.6-1.9h-5.8l.6-2h6.2l.6-2h-10.8zm-36.8-3.3-1.8-6.6h-6.9l-3 9.9h4.1l2.1-7 1.9 7h6.6l3-9.9h-4.1zm185.9-12.8 11.3-40.1h-19l-11.3 40.1zm-25.1 0 15.4-54.9h-19l-15.4 54.9zm40.5-54.9h-19l-3.1 11h19zm-147.1 0h-19l-3.1 11h19zm-15.4 54.9 11.3-40.1h-19l-11.3 40.1zm-38.8-20.6h20.1l3.4-12h-20.1l2.6-9.4h20.1l3.8-13h-39.4l-15.4 54.9h19.2zm176.8 29.2h3.7l-2.3 7.5h4.7l2.3-7.5h3.7l.7-2.4h-12.1zm81.2-48.7-10.3 22.2.3-22.1v-.1h-15.6-3.6-6.7l2.5-8.9h-19l-10.4 36.6c-.6 2.1-.8 3.9-.8 5.6 0 4.1 2.1 6.9 7.7 6.9h16.9l2.8-9.9h-4.1c-2.6 0-3.3-.6-3.3-2.4 0-1 .3-2.4.7-3.6l4.3-15.2h10.1l2.9 31.1c-.3 1.7-.9 2.9-1.7 3.7-.3.2-.6.4-.9.6-1.6.7-5.2.6-6.5.5h-.2v.1h-.1l-3 10.9h13c7.7 0 11.4-3.9 16.9-12.4l27.7-43.5h-19.6zm-53.5 46.1c-4.5 0-7.1 1-7.7 3.1-.2.6-.2 1.3.3 1.7 1.2 1.2 6.4 1.6 6.8 2.2.1.1.1.3.1.5-.2.8-1.4 1-2.3 1-.6 0-1.4-.1-1.7-.4-.2-.3-.2-.7-.1-.9h-4.4c-.4 1.5-.6 3.1 5.5 3.1 5.1 0 7.5-1.3 8.1-3.2.3-1 0-1.5-.3-1.8-1.1-1.2-6.2-1.6-6.8-2.2-.1-.1-.1-.3-.1-.5.2-.5.8-.8 1.8-.8.6 0 1.5.1 1.8.3s.4.5.3.8h4.2c.3-1.7-.8-2.9-5.5-2.9zm60.7-10.2c0 2.3-1.9 4.2-4.2 4.2s-4.2-1.9-4.2-4.2 1.9-4.2 4.2-4.2 4.2 1.9 4.2 4.2zm-.8 0c0-1.9-1.5-3.4-3.4-3.4s-3.4 1.5-3.4 3.4 1.5 3.4 3.4 3.4c1.9.1 3.4-1.5 3.4-3.4zm-101.4 17-1.8-6.6h-6.9l-3 9.9h4.1l2.2-7 1.9 7h6.7l3-9.9h-4.1zm-92.3-17.3c-3.8 3.2-7.6 5.4-13.7 5.4-6.2 0-10.1-2.9-10.1-9.2 0-6.9 2.7-17.2 6.8-24.4 2.9-5.4 8.2-8.2 14.5-8.2 5.4 0 9.3 2.4 10.9 5.3l5.3-19.4h19l-15.4 54.9h-18.6zm2.3-8.9 3.8-13.2c-.7-1-1.8-1.6-3-1.6-1.7 0-3.4.5-4.3 2.9-1.4 3.4-2.7 6.7-2.7 10 0 1.5 1.1 2.9 2.9 2.9 1.5 0 2.4-.5 3.3-1zm188.6 9.5 1.1 1.8h-.8l-1.1-1.8h-.6v1.8h-.8v-4.3h1.6c1 0 1.5.5 1.5 1.3.2.8-.3 1.2-.9 1.2zm-.8-.6c.5 0 1 0 1-.6s-.5-.6-1-.6h-.6v1.2zm-193.1 10.6c-4.5 0-7.1 1-7.7 3.1-.2.6-.2 1.3.3 1.7 1.2 1.2 6.4 1.6 6.8 2.2.1.1.1.3.1.5-.2.8-1.4 1-2.3 1-.6 0-1.4-.1-1.7-.4-.2-.3-.2-.7-.1-.9h-4.4c-.4 1.5-.6 3.1 5.5 3.1 5.1 0 7.5-1.3 8.1-3.2.3-1 0-1.5-.3-1.8-1.1-1.2-6.2-1.6-6.8-2.2-.1-.1-.1-.3-.1-.5.2-.5.8-.8 1.8-.8.6 0 1.5.1 1.8.3s.4.5.3.8h4.2c.4-1.8-.7-2.9-5.5-2.9zm66 .1-3 9.9h10.8l.6-2h-6.3l.6-2h5.8l.6-1.9h-5.8l.6-2h6.2l.6-2zm-51.3 2.4h3.7l-2.3 7.4h4.7l2.3-7.4h3.7l.7-2.4h-12.1zm30.2 4.2-.4-6.6h-7.2l-3 9.9h4l2.2-7.4.6 7.4h4.6l5.3-7.4-2.3 7.4h4.4l3-9.9h-7.2zm4-11.8c-11.3 0-20-1.6-20-12.4 0-6 3-15.8 7-21.1 4.8-6.3 13.1-8.6 20.8-8.6 11.8 0 19.4 2.4 19.4 12.4 0 2.4-1 7.8-2.1 11.1h-26.2c-.5 2.1-1 3.6-1 5.3 0 .8.1 2.9 2.8 2.9s3.8-1 4.9-4.9h18.6c-2.3 11.4-15.9 15.3-24.2 15.3zm1.1-26.3h7.8c.2-.8.5-2.1.5-2.8 0-2.2-1.3-2.9-3.3-2.9-2.4 0-4 1.6-5 5.7z" fill-rule="nonzero" transform="matrix(1.07101 0 0 1.07101 65.6975 39.3659)"/></svg>

<?xml version="1.0" encoding="UTF-8" standalone="no"?>
<!DOCTYPE svg PUBLIC "-//W3C//DTD SVG 1.1//EN" "http://www.w3.org/Graphics/SVG/1.1/DTD/svg11.dtd">
<svg width="100%" height="100%" viewBox="0 0 560 400" version="1.1" xmlns="http://www.w3.org/2000/svg" xmlns:xlink="http://www.w3.org/1999/xlink" xml:space="preserve" xmlns:serif="http://www.serif.com/" style="fill-rule:evenodd;clip-rule:evenodd;stroke-linejoin:round;stroke-miterlimit:1.41421;">
    <g id="black" transform="matrix(1.07101,0,0,1.07101,65.6975,39.3659)">
        <path d="M91.5,181.8L96.2,181.8L93.2,191.7L88.5,191.7L91.5,181.8ZM138,188L137.1,181.8L131.9,181.8L133.9,191.7L139.7,191.7L147.7,181.8L142.9,181.8L138,188ZM57.2,109.6C49.1,107.1 39,107.5 31.3,110.6C21.6,114.2 12.6,122.9 8.8,132.5C4.8,141.9 4.8,153.6 8.7,162.9C12,171.5 19.3,179.2 27.6,183.4C28.6,183.9 29.7,184.4 30.8,184.8L39.4,158.1L58.6,158.1L54.4,155.4L40,155.4L45.6,137.3L36.1,152.6L39,154.6L34.9,154.6L31.3,160.4L15.9,168.5L15.6,168.6C15.5,168.6 15.6,168.5 15.6,168.5L34.9,152.1L10.3,155L10.3,154.8L34.1,147.8L10.2,140.8C10.1,140.8 10.1,140.7 10.2,140.6L34.8,143.2L15.5,127.4L15.6,127.3L37.3,139.2L25.8,117.3C25.8,117.3 25.9,117.2 25.9,117.3L41.1,137L39.3,111.4C39.3,111.3 39.4,111.4 39.5,111.4L45.9,136L53.2,112.1L53.4,112.1L50.3,136.7L66.3,118C66.4,118 66.4,118 66.4,118.1L54.2,139.7L76.3,128.5C76.3,128.4 76.5,128.5 76.5,128.5L56.8,143.4L82,141.8L82,141.9L57.5,148L81.1,156.3L81.3,156.4C81.3,156.4 81.3,156.5 81.2,156.5L56.1,152.7L75.5,169.4C75.5,169.5 75.5,169.6 75.4,169.6L60.6,161.4L71.2,179L71.2,179.1C77.4,174.2 81.9,167.3 84.1,160.1C87.6,149.3 86,137.2 80.3,127.7C75.2,118.9 66.4,112.3 57.2,109.6ZM153.6,191.7L164.4,191.7L165,189.7L158.7,189.7L159.3,187.7L165.1,187.7L165.7,185.8L159.9,185.8L160.5,183.8L166.7,183.8L167.3,181.8L156.5,181.8L153.6,191.7ZM116.8,188.4L115,181.8L108.1,181.8L105.1,191.7L109.2,191.7L111.3,184.7L113.2,191.7L119.8,191.7L122.8,181.8L118.7,181.8L116.8,188.4ZM302.7,175.6L314,135.5L295,135.5L283.7,175.6L302.7,175.6ZM277.6,175.6L293,120.7L274,120.7L258.6,175.6L277.6,175.6ZM318.1,120.7L299.1,120.7L296,131.7L315,131.7L318.1,120.7ZM171,120.7L152,120.7L148.9,131.7L167.9,131.7L171,120.7ZM155.6,175.6L166.9,135.5L147.9,135.5L136.6,175.6L155.6,175.6ZM116.8,155L136.9,155L140.3,143L120.2,143L122.8,133.6L142.9,133.6L146.7,120.6L107.3,120.6L91.9,175.5L111.1,175.5L116.8,155ZM293.6,184.2L297.3,184.2L295,191.7L299.7,191.7L302,184.2L305.7,184.2L306.4,181.8L294.3,181.8L293.6,184.2ZM374.8,135.5L364.5,157.7L364.8,135.6L364.8,135.5L349.2,135.5L345.6,135.5L338.9,135.5L341.4,126.6L322.4,126.6L312,163.2C311.4,165.3 311.2,167.1 311.2,168.8C311.2,172.9 313.3,175.7 318.9,175.7L335.8,175.7L338.6,165.8L334.5,165.8C331.9,165.8 331.2,165.2 331.2,163.4C331.2,162.4 331.5,161 331.9,159.8L336.2,144.6L346.3,144.6L349.2,175.7C348.9,177.4 348.3,178.6 347.5,179.4C347.2,179.6 346.9,179.8 346.6,180C345,180.7 341.4,180.6 340.1,180.5L339.9,180.5L339.9,180.6L339.8,180.6L336.8,191.5L349.8,191.5C357.5,191.5 361.2,187.6 366.7,179.1L394.4,135.6L374.8,135.6L374.8,135.5ZM321.3,181.6C316.8,181.6 314.2,182.6 313.6,184.7C313.4,185.3 313.4,186 313.9,186.4C315.1,187.6 320.3,188 320.7,188.6C320.8,188.7 320.8,188.9 320.8,189.1C320.6,189.9 319.4,190.1 318.5,190.1C317.9,190.1 317.1,190 316.8,189.7C316.6,189.4 316.6,189 316.7,188.8L312.3,188.8C311.9,190.3 311.7,191.9 317.8,191.9C322.9,191.9 325.3,190.6 325.9,188.7C326.2,187.7 325.9,187.2 325.6,186.9C324.5,185.7 319.4,185.3 318.8,184.7C318.7,184.6 318.7,184.4 318.7,184.2C318.9,183.7 319.5,183.4 320.5,183.4C321.1,183.4 322,183.5 322.3,183.7C322.6,183.9 322.7,184.2 322.6,184.5L326.8,184.5C327.1,182.8 326,181.6 321.3,181.6ZM382,171.4C382,173.7 380.1,175.6 377.8,175.6C375.5,175.6 373.6,173.7 373.6,171.4C373.6,169.1 375.5,167.2 377.8,167.2C380.1,167.2 382,169.1 382,171.4ZM381.2,171.4C381.2,169.5 379.7,168 377.8,168C375.9,168 374.4,169.5 374.4,171.4C374.4,173.3 375.9,174.8 377.8,174.8C379.7,174.9 381.2,173.3 381.2,171.4ZM279.8,188.4L278,181.8L271.1,181.8L268.1,191.7L272.2,191.7L274.4,184.7L276.3,191.7L283,191.7L286,181.8L281.9,181.8L279.8,188.4ZM187.5,171.1C183.7,174.3 179.9,176.5 173.8,176.5C167.6,176.5 163.7,173.6 163.7,167.3C163.7,160.4 166.4,150.1 170.5,142.9C173.4,137.5 178.7,134.7 185,134.7C190.4,134.7 194.3,137.1 195.9,140L201.2,120.6L220.2,120.6L204.8,175.5L186.2,175.5L187.5,171.1ZM189.8,162.2L193.6,149C192.9,148 191.8,147.4 190.6,147.4C188.9,147.4 187.2,147.9 186.3,150.3C184.9,153.7 183.6,157 183.6,160.3C183.6,161.8 184.7,163.2 186.5,163.2C188,163.2 188.9,162.7 189.8,162.2ZM378.4,171.7L379.5,173.5L378.7,173.5L377.6,171.7L377,171.7L377,173.5L376.2,173.5L376.2,169.2L377.8,169.2C378.8,169.2 379.3,169.7 379.3,170.5C379.5,171.3 379,171.7 378.4,171.7ZM377.6,171.1C378.1,171.1 378.6,171.1 378.6,170.5C378.6,169.9 378.1,169.9 377.6,169.9L377,169.9L377,171.1L377.6,171.1ZM184.5,181.7C180,181.7 177.4,182.7 176.8,184.8C176.6,185.4 176.6,186.1 177.1,186.5C178.3,187.7 183.5,188.1 183.9,188.7C184,188.8 184,189 184,189.2C183.8,190 182.6,190.2 181.7,190.2C181.1,190.2 180.3,190.1 180,189.8C179.8,189.5 179.8,189.1 179.9,188.9L175.5,188.9C175.1,190.4 174.9,192 181,192C186.1,192 188.5,190.7 189.1,188.8C189.4,187.8 189.1,187.3 188.8,187C187.7,185.8 182.6,185.4 182,184.8C181.9,184.7 181.9,184.5 181.9,184.3C182.1,183.8 182.7,183.5 183.7,183.5C184.3,183.5 185.2,183.6 185.5,183.8C185.8,184 185.9,184.3 185.8,184.6L190,184.6C190.4,182.8 189.3,181.7 184.5,181.7ZM250.5,181.8L247.5,191.7L258.3,191.7L258.9,189.7L252.6,189.7L253.2,187.7L259,187.7L259.6,185.8L253.8,185.8L254.4,183.8L260.6,183.8L261.2,181.8L250.5,181.8ZM199.2,184.2L202.9,184.2L200.6,191.6L205.3,191.6L207.6,184.2L211.3,184.2L212,181.8L199.9,181.8L199.2,184.2ZM229.4,188.4L229,181.8L221.8,181.8L218.8,191.7L222.8,191.7L225,184.3L225.6,191.7L230.2,191.7L235.5,184.3L233.2,191.7L237.6,191.7L240.6,181.8L233.4,181.8L229.4,188.4ZM233.4,176.6C222.1,176.6 213.4,175 213.4,164.2C213.4,158.2 216.4,148.4 220.4,143.1C225.2,136.8 233.5,134.5 241.2,134.5C253,134.5 260.6,136.9 260.6,146.9C260.6,149.3 259.6,154.7 258.5,158L232.3,158C231.8,160.1 231.3,161.6 231.3,163.3C231.3,164.1 231.4,166.2 234.1,166.2C236.8,166.2 237.9,165.2 239,161.3L257.6,161.3C255.3,172.7 241.7,176.6 233.4,176.6ZM234.5,150.3L242.3,150.3C242.5,149.5 242.8,148.2 242.8,147.5C242.8,145.3 241.5,144.6 239.5,144.6C237.1,144.6 235.5,146.2 234.5,150.3Z" style="fill-rule:nonzero;"/>
    </g>
</svg>
